X:99726629060921
T:6-6-7-9-8-4-12-12-2-11-11-7-10-11-4-4
%%setfont-1 Courier-Bold 8
T:$1K.516f::148:74:27:50:99:55:106:5:70:4:31:29:137:59:145:79::$0
T:$1Perm. No.: 99726629060921$0
M:3/8
L:1/8
Q:1/8=111
%%staves [1 2]
V:1 clef=treble
V:2 clef=bass
K:C
%1
[V:1]|: c'/b/c'/g/e/c/ |\
[V:2]|: [E,2C,2]z |\
%2
[V:1] c'/b/c'/g/e/c/ |\
[V:2] E,2z & C,2x |\
%3
[V:1] f/e/f/d/c/B/ |\
[V:2] [B,2G,2]z |\
%4
[V:1] ce/c/G |\
[V:2] [G,2E,2]z |\
%5
[V:1] ^fad |\
[V:2] [A,2C,2][A,C,] |\
%6
[V:1] gbd |\
[V:2] [D,2B,,2]z |\
%7
[V:1] Ad/c/B/A/ \
[V:2] C,D,D,, \
%8a
[V:1]|1 [g2d2B2G2]z :|2
[V:2]|1 G,,G,/=F,/E,/D,/ :|2
%8b
[V:1] [g2d2B2G2]z |:\
[V:2] G,,B,/G,/^F,/E,/ |:\
%9
[V:1] ^fa/f/d/f/ |\
[V:2] D,2C, |\
%10
[V:1] g!trill!d2 |\
[V:2] G,,/B,,/G,B, |\
%11
[V:1] e/c/G e |\
[V:2] [G,2C,2][G,C,] |\
%12
[V:1] B/d/g/d/B |\
[V:2] G,2G,, |\
%13
[V:1] cGe |\
[V:2] [E,/C,/]G,/[E,/C,/]G,/[E,/C,/]G,/ |\
%14
[V:1] gce |\
[V:2] [E,/C,/]G,/[E,/C,/]G,/[E,/C,/]G,/ |\
%15
[V:1] d/f/A/d/B/d/ |\
[V:2] F,2G, |\
%16
[V:1] c2z :|]
[V:2] C,G,,C,, :|]
